X: 14182
T: Frost Is All Over, The
R: jig
M: 6/8
K: Cmajor
|:G|cec dBG|AcE D2C|EGG GEG|cec d2G|
cec dBG|AcE D2C|EGG egf|ecB c2:|
|:d|ege gec|faf afd|ege gec|~f3 d2f|
ege gec|faf afd|ege dcd|ecB c2:|

